packages/core/src/svgs/jmpt.svg

<svg width="24" height="24" viewBox="0 0 24 24" fill="none" xmlns="http://www.w3.org/2000/svg">
<g clip-path="url(#clip0_31_12112)">
<path d="M0 0H24V24H0V0Z" fill="#3256F2"/>
<path d="M16.2857 6.85728L14.3571 3.42871L12.4285 6.85728H13.2857V16.543C13.2857 16.884 13.1502 17.211 12.9091 17.4521C12.668 17.6933 12.3409 17.8287 11.9999 17.8287C11.659 17.8287 11.3319 17.6933 11.0908 17.4521C10.8497 17.211 10.7142 16.884 10.7142 16.543V10.2859H11.5714L9.6428 6.85728L7.71423 10.2859H8.57138V16.693C8.57138 18.3644 9.86995 19.7144 11.4685 19.7144H12.5314C14.1299 19.7144 15.4285 18.3601 15.4285 16.693V6.85728H16.2857Z" fill="white"/>
</g>
<defs>
<clipPath id="clip0_31_12112">
<rect width="24" height="24" fill="white"/>
</clipPath>
</defs>
</svg>

<svg xmlns="http://www.w3.org/2000/svg" width="24" height="24" fill="none" viewBox="0 0 24 24"><g clip-path="url(#a)"><path fill="#3256F2" d="M0 0h24v24H0z"/><path fill="#fff" d="M16.286 6.857 14.357 3.43 12.43 6.857h.857v9.686a1.286 1.286 0 0 1-2.572 0v-6.257h.857L9.643 6.857l-1.929 3.429h.857v6.407c0 1.671 1.299 3.021 2.898 3.021h1.062c1.599 0 2.897-1.354 2.897-3.021V6.857z"/></g><defs><clipPath id="a"><path fill="#fff" d="M0 0h24v24H0z"/></clipPath></defs></svg>
